Obsidian-SemiLight/actions/16s/align-horizontal-baseline.svg

<svg viewBox="0 0 16 16" xmlns="http://www.w3.org/2000/svg"><path d="m5 2v10.9375c-.1067247.019729-.1885547.043239-.3007812.0625l.2089843 1c.0317246-.005445.0603184-.013884.0917969-.019531v.019531h1v-.246094c3.7507108-1.014607 5.449219-3.574667 5.449219-5.753906h-1.107422c0 .69264-.3498589 2.029962-.9492189 2.544922-.61184-.5798102-1.3494537-1.477127-1.5273437-2.529297l-.8925782-.015625c0 1.42386 1.0072919 2.602552 1.7636719 3.326172-.6839955.694821-1.4968788 1.099021-2.7363281 1.40625v-10.732422zm4.3320312 0c-.8675872.0182-1.5333402.1551085-2.0175781.3554688l.2714844.9003906c.2320279-.0729001 1.1105001-.3261719 1.625-.3261719h.0703125c.7162657.0273.765625.2628086.765625.8183594v.21875l-.3730469.0546875c-1.7351856.2276903-2.6621094.418902-2.6621093 1.6210937 0 .8378912.6757301 1.3574219 1.6542968 1.3574219.6759126 0 1.1202545-.255482 1.5742184-.6015625l.140625.5097656h1.06836v-3.3691406c0-1.0291414-.785499-1.5390625-1.996094-1.5390625zm.7148438 2.6777344v1.1191406c-.3732584.2276903-.654434.3925781-1.1386719.3925781-.4337936 0-.6464843-.2457164-.6464843-.5917969 0-.6557408.6353083-.7650542 1.4121093-.8652343z" fill="#4d4d4d"/></svg>

<svg xmlns="http://www.w3.org/2000/svg" viewBox="0 0 16 16">
  <defs id="defs3051">
    <style type="text/css" id="current-color-scheme">
      .ColorScheme-Text {
        color:#4d4d4d;
      }
      </style>
  </defs>
 <path style="fill:currentColor;fill-opacity:1;stroke:none" 
       d="M 5 2 L 5 12.9375 C 4.8932753 12.957229 4.8114453 12.980739 4.6992188 13 L 4.9082031 14 C 4.9399277 13.994555 4.9685215 13.986116 5 13.980469 L 5 14 L 6 14 L 6 13.753906 C 9.7507108 12.739299 11.449219 10.179239 11.449219 8 L 10.341797 8 C 10.341797 8.69264 9.9919381 10.029962 9.3925781 10.544922 C 8.7807381 9.9651118 8.0431244 9.067795 7.8652344 8.015625 L 6.9726562 8 C 6.9726562 9.42386 7.9799481 10.602552 8.7363281 11.326172 C 8.0523326 12.020993 7.2394493 12.425193 6 12.732422 L 6 2 L 5 2 z M 9.3320312 2 C 8.464444 2.0182 7.798691 2.1551085 7.3144531 2.3554688 L 7.5859375 3.2558594 C 7.8179654 3.1829593 8.6964376 2.9296875 9.2109375 2.9296875 L 9.28125 2.9296875 C 9.9975157 2.9569875 10.046875 3.1924961 10.046875 3.7480469 L 10.046875 3.9667969 L 9.6738281 4.0214844 C 7.9386425 4.2491747 7.0117187 4.4403864 7.0117188 5.6425781 C 7.0117188 6.4804693 7.6874489 7 8.6660156 7 C 9.3419282 7 9.7862701 6.744518 10.240234 6.3984375 L 10.380859 6.9082031 L 11.449219 6.9082031 L 11.449219 3.5390625 C 11.449219 2.5099211 10.66372 2 9.453125 2 L 9.3320312 2 z M 10.046875 4.6777344 L 10.046875 5.796875 C 9.6736166 6.0245653 9.392441 6.1894531 8.9082031 6.1894531 C 8.4744095 6.1894531 8.2617188 5.9437367 8.2617188 5.5976562 C 8.2617188 4.9419154 8.8970271 4.832602 9.6738281 4.7324219 L 10.046875 4.6777344 z "
     class="ColorScheme-Text"
     />
</svg>
